/* XPM */
static char *_05f8edaea184d4882ac95ed9c3266e9[] = {
/* columns rows colors chars-per-pixel */
"64 64 18 1 ",
"  c None",
". c #00008B",
"X c #101092",
"o c #20209A",
"O c #3030A1",
"+ c #4040A8",
"@ c #5050AF",
"# c #6060B7",
"$ c #7070BE",
"% c #8080C5",
"& c #8F8FCC",
"* c #9F9FD4",
"= c #AFAFDB",
"- c #BFBFE2",
"; c #CFCFE9",
": c #DFDFF1",
"> c #EFEFF8",
", c white",
/* pixels */
"                         ..............                         ",
"                      ....................                      ",
"                   ..........................                   ",
"                 ..............................                 ",
"               ..................................               ",
"              ....................................              ",
"            ........................................            ",
"           ..........................................           ",
"          ............................................          ",
"         ..............................................         ",
"        ................................................        ",
"       ..................................................       ",
"      ....................................................      ",
"      ....................................................      ",
"     ......................................................     ",
"    ........................................................    ",
"    .............#--------------------------------o.........    ",
"   ..............&,,,,,,,,,,,,,,,,,,,,,,,,,,,,,,,$...........   ",
"   ..............-,,,,,,,;---------;,,,,>-->,,,,=............   ",
"  ...............-,,,:$o...........-,,,,#.O>,,,:X.............  ",
"  ...............>,,*X............%,,,,&.X;,,,>O..............  ",
"  ...............,,*.............+,,,,;..=,,,,#...............  ",
" ................,:.............o>,,,>o.$,,,,*................. ",
" ...............+,#.............;,,,,+.O,,,,;X................. ",
" ...............X+X............&,,,,%.X>,,,>O.................. ",
"..............................#,,,,-..-,,,,@....................",
".............................O>,,,:X.%,,,,&.....................",
"............................X;,,,,O.@,,,,;......................",
"............................*,,,,$.o>,,,>X......................",
"...........................#,,,,*..;,,,,+.......................",
"..........................O,,,,;X.*,,,,%........................",
".........................X:,,,>O.#,,,,=.........................",
".........................=,,,,#.O>,,,:X.........................",
"........................%,,,,*.X;,,,,O..........................",
".......................+,,,,;..*,,,,#...........................",
"......................X>,,,>o.$,,,,*............................",
"......................;,,,,@.O,,,,;X............................",
".....................&,,,,%.X:,,,>O.............................",
"....................@,,,,-..-,,,,#..............................",
" ..................O>,,,>X.%,,,,&............X+X............... ",
" .................X;,,,,O.+,,,,;.............#,+............... ",
" .................*,,,,$.o>,,,>o............X:,................ ",
"  ...............#,,,,=..;,,,,+.............*,,...............  ",
"  ..............O>,,,;X.&,,,,%............X*,,>...............  ",
"  .............X:,,,>O.#,,,,-...........o$:,,,-...............  ",
"   ............=,,,,>-->,,,,;---------;,,,,,,,-..............   ",
"   ...........$,,,,,,,,,,,,,,,,,,,,,,,,,,,,,,,&..............   ",
"    .........o--------------------------------#.............    ",
"    ........................................................    ",
"     ......................................................     ",
"      ....................................................      ",
"      ....................................................      ",
"       ..................................................       ",
"        ................................................        ",
"         ..............................................         ",
"          ............................................          ",
"           ..........................................           ",
"            ........................................            ",
"              ....................................              ",
"               ..................................               ",
"                 ..............................                 ",
"                   ..........................                   ",
"                      ....................                      ",
"                         ..............                         "
};
