/* XPM */
static char *_0cf39d803b94393a0685411ad2287e5[] = {
/* columns rows colors chars-per-pixel */
"32 32 18 1 ",
"  c None",
". c #00008B",
"X c #101092",
"o c #20209A",
"O c #3030A1",
"+ c #4040A8",
"@ c #5050AF",
"# c #6060B7",
"$ c #7070BE",
"% c #8080C5",
"& c #8F8FCC",
"* c #9F9FD4",
"= c #AFAFDB",
"- c #BFBFE2",
"; c #CFCFE9",
": c #DFDFF1",
"> c #EFEFF8",
", c white",
/* pixels */
"           ..........           ",
"         ..............         ",
"       ..................       ",
"      ....................      ",
"     ......................     ",
"    ........................    ",
"   ..........................   ",
"  ............................  ",
"  ......@,,,,,,,,,,,,,,,>o....  ",
" .......%,,=%%%%%-,,=;,,+...... ",
" .......%>+.....o>,=+,,%....... ",
"........*$......;,:o>,-.........",
"........OX.....*,,O;,:X.........",
"..............#,,#&,,O..........",
".............O>,*@,,$...........",
"............X;,;+>,*............",
"............*,>+;,;X............",
"...........$,,@*,>O.............",
"..........O,,&#,,#..............",
".........X:,;O,,*.....XO........",
".........-,>o:,;......$*........",
" .......%,,+=,>o.....+>%....... ",
" ......+,,;=,,-%%%%%=,,%....... ",
"  ....o>,,,,,,,,,,,,,,,@......  ",
"  ............................  ",
"   ..........................   ",
"    ........................    ",
"     ......................     ",
"      ....................      ",
"       ..................       ",
"         ..............         ",
"           ..........           "
};
