/* XPM */
static char *_02eaa0fc7634fc593ae7503f4404143FsUtNWtO5UXiM7oK[] = {
/* columns rows colors chars-per-pixel */
"128 128 18 1 ",
"  c None",
". c #00008B",
"X c #101092",
"o c #20209A",
"O c #3030A1",
"+ c #4040A8",
"@ c #5050AF",
"# c #6060B7",
"$ c #7070BE",
"% c #8080C5",
"& c #8F8FCC",
"* c #9F9FD4",
"= c #AFAFDB",
"- c #BFBFE2",
"; c #CFCFE9",
": c #DFDFF1",
"> c #EFEFF8",
", c white",
/* pixels */
"                                                                                                                                ",
"                                                      ....................                                                      ",
"                                                 ..............................                                                 ",
"                                              ....................................                                              ",
"                                           ..........................................                                           ",
"                                        ................................................                                        ",
"                                      ....................................................                                      ",
"                                    ........................................................                                    ",
"                                  ............................................................                                  ",
"                                ................................................................                                ",
"                              ....................................................................                              ",
"                             ......................................................................                             ",
"                           ..........................................................................                           ",
"                          ............................................................................                          ",
"                         ..............................................................................                         ",
"                       ..................................................................................                       ",
"                      ....................................................................................                      ",
"                     ......................................................................................                     ",
"                    ........................................................................................                    ",
"                   ..........................................................................................                   ",
"                  ............................................................................................                  ",
"                 ..............................................................................................                 ",
"                ................................................................................................                ",
"               ..................................................................................................               ",
"               ..................................................................................................               ",
"              ....................................................................................................              ",
"             ......................................................................................................             ",
"            ........................................................................................................            ",
"            ........................................................................................................            ",
"           ..........................................................................................................           ",
"          ............................................................................................................          ",
"          ............................................................................................................          ",
"         ..........................X++++++++++++++++++++++++++++++++++++++++++++++++++++++++++++++++...................         ",
"         ..........................$,,,,,,,,,,,,,,,,,,,,,,,,,,,,,,,,,,,,,,,,,,,,,,,,,,,,,,,,,,,,,,,=...................         ",
"        ...........................%,,,,,,,,,,,,,,,,,,,,,,,,,,,,,,,,,,,,,,,,,,,,,,,,,,,,,,,,,,,,,,;X....................        ",
"        ...........................&,,,,,,,,,,,,,,,,,,,,,,,,,,,,,,,,,,,,,,,,,,,,,,,,,,,,,,,,,,,,,>O.....................        ",
"       ............................-,,,,,,,,,,,,,,,,,,,,,,,,,,,,,,,,,,,,,,,,,,,,,,,,,,,,,,,,,,,,,#.......................       ",
"       ............................-,,,,,,,,,,,,,,,,,,,,,,,,,,,,,,,,,,,,,,,,,,,,,,,,,,,,,,,,,,,,*........................       ",
"      .............................>,,,,,,,,,,=%+o.....................=,,,,,,,,;X....=,,,,,,,,;..........................      ",
"      .............................,,,,,,,,:$X........................$,,,,,,,,>O....%,,,,,,,,>o..........................      ",
"     .............................X,,,,,,,%X.........................O,,,,,,,,,#....+,,,,,,,,,@............................     ",
"     .............................+,,,,,>+..........................X:,,,,,,,,&....X>,,,,,,,,&.............................     ",
"     .............................+,,,,>O...........................-,,,,,,,,;.....;,,,,,,,,-..............................     ",
"    ..............................$,,,,+...........................%,,,,,,,,>o....&,,,,,,,,>X...............................    ",
"    ..............................%,,,%...........................+,,,,,,,,,@....@,,,,,,,,,+................................    ",
"    ..............................%,,:X..........................o>,,,,,,,,%....O>,,,,,,,,$.................................    ",
"   ...............................-,,#...........................;,,,,,,,,-....X;,,,,,,,,=...................................   ",
"   ...............................-,>X..........................&,,,,,,,,>X....*,,,,,,,,:X...................................   ",
"   ...............................#%#..........................#,,,,,,,,,O....#,,,,,,,,>O....................................   ",
"  ............................................................O>,,,,,,,,$....O,,,,,,,,,#......................................  ",
"  ...........................................................X;,,,,,,,,=....X:,,,,,,,,*.......................................  ",
"  ...........................................................*,,,,,,,,;X....=,,,,,,,,;X.......................................  ",
"  ..........................................................$,,,,,,,,>O....%,,,,,,,,>o........................................  ",
"  .........................................................O,,,,,,,,,#....+,,,,,,,,,@.........................................  ",
" .........................................................X:,,,,,,,,*....X>,,,,,,,,&..........................................  ",
" .........................................................=,,,,,,,,;.....-,,,,,,,,-............................................ ",
" ........................................................%,,,,,,,,>o....&,,,,,,,,>X............................................ ",
" .......................................................+,,,,,,,,,@....@,,,,,,,,,+............................................. ",
" ......................................................X>,,,,,,,,&....o>,,,,,,,,%.............................................. ",
" ......................................................;,,,,,,,,-....X;,,,,,,,,=............................................... ",
" .....................................................&,,,,,,,,>X....*,,,,,,,,:X............................................... ",
" ....................................................@,,,,,,,,,+....#,,,,,,,,,O................................................ ",
" ...................................................O>,,,,,,,,$....O>,,,,,,,,#................................................. ",
" ..................................................X;,,,,,,,,=....X:,,,,,,,,*.................................................. ",
" ..................................................*,,,,,,,,:X....=,,,,,,,,;X.................................................. ",
" .................................................#,,,,,,,,>O....$,,,,,,,,>O................................................... ",
" ................................................O,,,,,,,,,#....+,,,,,,,,,@.................................................... ",
" ...............................................X:,,,,,,,,*....X>,,,,,,,,&..................................................... ",
" ...............................................=,,,,,,,,;X....-,,,,,,,,;...................................................... ",
" ..............................................%,,,,,,,,>o....%,,,,,,,,>X...................................................... ",
" .............................................+,,,,,,,,,@....@,,,,,,,,,+....................................................... ",
" ............................................X>,,,,,,,,&....o>,,,,,,,,%........................................................ ",
" ............................................-,,,,,,,,-.....;,,,,,,,,=......................................................... ",
" ...........................................&,,,,,,,,>X....*,,,,,,,,:X........................................................  ",
"  .........................................@,,,,,,,,,+....#,,,,,,,,,O.........................................................  ",
"  ........................................o>,,,,,,,,%....O>,,,,,,,,$..........................................................  ",
"  .......................................X;,,,,,,,,=....X;,,,,,,,,*...........................................................  ",
"  .......................................*,,,,,,,,:X....=,,,,,,,,;X...........................................................  ",
"  ......................................#,,,,,,,,,O....$,,,,,,,,>O............................................................  ",
"   ....................................O>,,,,,,,,#....O,,,,,,,,,#..........................#%#...............................   ",
"   ...................................X:,,,,,,,,*....X>,,,,,,,,&..........................X>,-...............................   ",
"   ...................................=,,,,,,,,;X....-,,,,,,,,;...........................#,,-...............................   ",
"    .................................$,,,,,,,,>O....%,,,,,,,,>o..........................X:,,%..............................    ",
"    ................................+,,,,,,,,,@....@,,,,,,,,,+...........................%,,,%..............................    ",
"    ...............................X>,,,,,,,,&....o>,,,,,,,,%...........................+,,,,$..............................    ",
"     ..............................-,,,,,,,,;.....;,,,,,,,,-...........................O>,,,,+.............................     ",
"     .............................%,,,,,,,,>X....&,,,,,,,,:X..........................+>,,,,,+.............................     ",
"     ............................@,,,,,,,,,+....#,,,,,,,,,O.........................X%,,,,,,,X.............................     ",
"      ..........................o>,,,,,,,,%....O>,,,,,,,,$........................X$:,,,,,,,,.............................      ",
"      ..........................;,,,,,,,,=....X;,,,,,,,,=.....................o+%=,,,,,,,,,,>.............................      ",
"       ........................*,,,,,,,,,,,,,,,,,,,,,,,,,,,,,,,,,,,,,,,,,,,,,,,,,,,,,,,,,,,,-............................       ",
"       .......................#,,,,,,,,,,,,,,,,,,,,,,,,,,,,,,,,,,,,,,,,,,,,,,,,,,,,,,,,,,,,,-............................       ",
"        .....................O>,,,,,,,,,,,,,,,,,,,,,,,,,,,,,,,,,,,,,,,,,,,,,,,,,,,,,,,,,,,,,&...........................        ",
"        ....................X;,,,,,,,,,,,,,,,,,,,,,,,,,,,,,,,,,,,,,,,,,,,,,,,,,,,,,,,,,,,,,,%...........................        ",
"         ...................=,,,,,,,,,,,,,,,,,,,,,,,,,,,,,,,,,,,,,,,,,,,,,,,,,,,,,,,,,,,,,,,$..........................         ",
"         ...................++++++++++++++++++++++++++++++++++++++++++++++++++++++++++++++++X..........................         ",
"          ............................................................................................................          ",
"          ............................................................................................................          ",
"           ..........................................................................................................           ",
"            ........................................................................................................            ",
"            ........................................................................................................            ",
"             ......................................................................................................             ",
"              ....................................................................................................              ",
"               ..................................................................................................               ",
"               ..................................................................................................               ",
"                ................................................................................................                ",
"                 ..............................................................................................                 ",
"                  ............................................................................................                  ",
"                   ..........................................................................................                   ",
"                    ........................................................................................                    ",
"                     ......................................................................................                     ",
"                      ....................................................................................                      ",
"                       ..................................................................................                       ",
"                         ..............................................................................                         ",
"                          ............................................................................                          ",
"                           ..........................................................................                           ",
"                             ......................................................................                             ",
"                              ....................................................................                              ",
"                                ................................................................                                ",
"                                  ............................................................                                  ",
"                                    ........................................................                                    ",
"                                      ....................................................                                      ",
"                                        ................................................                                        ",
"                                           ..........................................                                           ",
"                                              ....................................                                              ",
"                                                 ..............................                                                 ",
"                                                       ..................                                                       ",
"                                                                                                                                "
};
