/* XPM */
static char *_cc3745afc454f2bdaa4f59912995ec8xj5HI0HuCTtX43LG[] = {
/* columns rows colors chars-per-pixel */
"16 16 13 1 ",
"  c None",
". c #00008B",
"X c #101092",
"o c #3030A1",
"O c #6060B7",
"+ c #7070BE",
"@ c #9F9FD4",
"# c #AFAFDB",
"$ c #BFBFE2",
"% c #CFCFE9",
"& c #DFDFF1",
"* c #EFEFF8",
"= c white",
/* pixels */
"     ......     ",
"   ..........   ",
"  ............  ",
" .............. ",
" ...$*$$%=*=+.. ",
"....$X..%%&#....",
"....o..@*$%X....",
"......O=#*o.....",
".....o*#=O......",
"....X%$*@..o....",
"....#&%%..X$....",
" ..+=*=%$$*$... ",
" .............. ",
"  ............  ",
"   ..........   ",
"     ......     "
};
