/* XPM */
static char *_f4b056120ef4221b7407f292cdde5e9[] = {
/* columns rows colors chars-per-pixel */
"256 256 18 1 ",
"  c None",
". c #00008B",
"X c #101092",
"o c #20209A",
"O c #3030A1",
"+ c #4040A8",
"@ c #5050AF",
"# c #6060B7",
"$ c #7070BE",
"% c #8080C5",
"& c #8F8FCC",
"* c #9F9FD4",
"= c #AFAFDB",
"- c #BFBFE2",
"; c #CFCFE9",
": c #DFDFF1",
"> c #EFEFF8",
", c white",
/* pixels */
"                                                                                                                                                                                                                                                                ",
"                                                                                                                                                                                                                                                                ",
"                                                                                                                                                                                                                                                                ",
"                                                                                                                  ............................                                                                                                                  ",
"                                                                                                           ..........................................                                                                                                           ",
"                                                                                                      ....................................................                                                                                                      ",
"                                                                                                  ............................................................                                                                                                  ",
"                                                                                              ....................................................................                                                                                              ",
"                                                                                           ..........................................................................                                                                                           ",
"                                                                                        ................................................................................                                                                                        ",
"                                                                                     ......................................................................................                                                                                     ",
"                                                                                  ............................................................................................                                                                                  ",
"                                                                                ................................................................................................                                                                                ",
"                                                                             ......................................................................................................                                                                             ",
"                                                                           ..........................................................................................................                                                                           ",
"                                                                         ..............................................................................................................                                                                         ",
"                                                                       ..................................................................................................................                                                                       ",
"                                                                     ......................................................................................................................                                                                     ",
"                                                                   ..........................................................................................................................                                                                   ",
"                                                                 ..............................................................................................................................                                                                 ",
"                                                                ................................................................................................................................                                                                ",
"                                                              ....................................................................................................................................                                                              ",
"                                                             ......................................................................................................................................                                                             ",
"                                                           ..........................................................................................................................................                                                           ",
"                                                          ............................................................................................................................................                                                          ",
"                                                        ................................................................................................................................................                                                        ",
"                                                       ..................................................................................................................................................                                                       ",
"                                                     ......................................................................................................................................................                                                     ",
"                                                    ........................................................................................................................................................                                                    ",
"                                                   ..........................................................................................................................................................                                                   ",
"                                                 ..............................................................................................................................................................                                                 ",
"                                                ................................................................................................................................................................                                                ",
"                                               ..................................................................................................................................................................                                               ",
"                                              ....................................................................................................................................................................                                              ",
"                                             ......................................................................................................................................................................                                             ",
"                                            ........................................................................................................................................................................                                            ",
"                                           ..........................................................................................................................................................................                                           ",
"                                          ............................................................................................................................................................................                                          ",
"                                        ................................................................................................................................................................................                                        ",
"                                       ..................................................................................................................................................................................                                       ",
"                                      ....................................................................................................................................................................................                                      ",
"                                      ....................................................................................................................................................................................                                      ",
"                                     ......................................................................................................................................................................................                                     ",
"                                    ........................................................................................................................................................................................                                    ",
"                                   ..........................................................................................................................................................................................                                   ",
"                                  ............................................................................................................................................................................................                                  ",
"                                 ..............................................................................................................................................................................................                                 ",
"                                ................................................................................................................................................................................................                                ",
"                               ..................................................................................................................................................................................................                               ",
"                              ....................................................................................................................................................................................................                              ",
"                              ....................................................................................................................................................................................................                              ",
"                             ......................................................................................................................................................................................................                             ",
"                            ........................................................................................................................................................................................................                            ",
"                           ..........................................................................................................................................................................................................                           ",
"                           ..........................................................................................................................................................................................................                           ",
"                          ............................................................................................................................................................................................................                          ",
"                         ..............................................................................................................................................................................................................                         ",
"                         ..............................................................................................................................................................................................................                         ",
"                        ................................................................................................................................................................................................................                        ",
"                       ..................................................................................................................................................................................................................                       ",
"                       ..................................................................................................................................................................................................................                       ",
"                      ....................................................................................................................................................................................................................                      ",
"                     ......................................................................................................................................................................................................................                     ",
"                     ......................................................................................................................................................................................................................                     ",
"                    ........................................................................................................................................................................................................................                    ",
"                   ..........................................................................................................................................................................................................................                   ",
"                   ....................................................O-------------------------------------------------------------------------------------------------------------------------------o.....................................                   ",
"                  .....................................................+,,,,,,,,,,,,,,,,,,,,,,,,,,,,,,,,,,,,,,,,,,,,,,,,,,,,,,,,,,,,,,,,,,,,,,,,,,,,,,,,,,,,,,,,,,,,,,,,,,,,,,,,,,,,,,,,,,,,,,,,,,,,,,&.......................................                  ",
"                  .....................................................+,,,,,,,,,,,,,,,,,,,,,,,,,,,,,,,,,,,,,,,,,,,,,,,,,,,,,,,,,,,,,,,,,,,,,,,,,,,,,,,,,,,,,,,,,,,,,,,,,,,,,,,,,,,,,,,,,,,,,,,,,,,,,;........................................                  ",
"                 ......................................................%,,,,,,,,,,,,,,,,,,,,,,,,,,,,,,,,,,,,,,,,,,,,,,,,,,,,,,,,,,,,,,,,,,,,,,,,,,,,,,,,,,,,,,,,,,,,,,,,,,,,,,,,,,,,,,,,,,,,,,,,,,,,>X.........................................                 ",
"                 ......................................................%,,,,,,,,,,,,,,,,,,,,,,,,,,,,,,,,,,,,,,,,,,,,,,,,,,,,,,,,,,,,,,,,,,,,,,,,,,,,,,,,,,,,,,,,,,,,,,,,,,,,,,,,,,,,,,,,,,,,,,,,,,,,+..........................................                 ",
"                .......................................................*,,,,,,,,,,,,,,,,,,,,,,,,,,,,,,,,,,,,,,,,,,,,,,,,,,,,,,,,,,,,,,,,,,,,,,,,,,,,,,,,,,,,,,,,,,,,,,,,,,,,,,,,,,,,,,,,,,,,,,,,,,,%............................................                ",
"                .......................................................-,,,,,,,,,,,,,,,,,,,,,,,,,,,,,,,,,,,,,,,,,,,,,,,,,,,,,,,,,,,,,,,,,,,,,,,,,,,,,,,,,,,,,,,,,,,,,,,,,,,,,,,,,,,,,,,,,,,,,,,,,,=.............................................                ",
"               ........................................................-,,,,,,,,,,,,,,,,,,,,,,,,,,,,,,,,,,,,,,,,,,,,,,,,,,,,,,,,,,,,,,,,,,,,,,,,,,,,,,,,,,,,,,,,,,,,,,,,,,,,,,,,,,,,,,,,,,,,,,,,,:X..............................................               ",
"               ........................................................,,,,,,,,,,,,,,,,,,,,,,,,,,,,,,,,,,,,,,,,,,,,,,,,,,,,,,,,,,,,,,,,,,,,,,,,,,,,,,,,,,,,,,,,,,,,,,,,,,,,,,,,,,,,,,,,,,,,,,,,,,O...............................................               ",
"              .........................................................,,,,,,,,,,,,,,,,,,,,,,,,,,,,,,,,,,,,,,,,,,,,,,,,,,,,,,,,,,,,,,,,,,,,,,,,,,,,,,,,,,,,,,,,,,,,,,,,,,,,,,,,,,,,,,,,,,,,,,,,,#.................................................              ",
"              ........................................................o,,,,,,,,,,,,,,,,,,,,,,,,,>-*%%++++++++++++++++++++++++++++++++++++++++++-,,,,,,,,,,,,,,,,,>++++++++++@>,,,,,,,,,,,,,,,,,*..................................................              ",
"             .........................................................+,,,,,,,,,,,,,,,,,,,,,:*#o..............................................@,,,,,,,,,,,,,,,,,,+..........*,,,,,,,,,,,,,,,,,;X...................................................             ",
"             .........................................................+,,,,,,,,,,,,,,,,,,>*O.................................................o>,,,,,,,,,,,,,,,,,$..........$,,,,,,,,,,,,,,,,,>O....................................................             ",
"             .........................................................$,,,,,,,,,,,,,,,,>%X...................................................;,,,,,,,,,,,,,,,,,=..........O,,,,,,,,,,,,,,,,,,@.....................................................             ",
"            ..........................................................%,,,,,,,,,,,,,,,%X....................................................*,,,,,,,,,,,,,,,,,:X.........X:,,,,,,,,,,,,,,,,,&.......................................................            ",
"            ..........................................................&,,,,,,,,,,,,,;O.....................................................#,,,,,,,,,,,,,,,,,>O..........=,,,,,,,,,,,,,,,,,;........................................................            ",
"           ...........................................................-,,,,,,,,,,,,&......................................................O>,,,,,,,,,,,,,,,,,#..........%,,,,,,,,,,,,,,,,,>o.........................................................           ",
"           ...........................................................-,,,,,,,,,,,#......................................................X;,,,,,,,,,,,,,,,,,*..........+,,,,,,,,,,,,,,,,,,+..........................................................           ",
"           ...........................................................>,,,,,,,,,>O.......................................................=,,,,,,,,,,,,,,,,,;X.........X>,,,,,,,,,,,,,,,,,%...........................................................           ",
"          ............................................................,,,,,,,,,,O.......................................................$,,,,,,,,,,,,,,,,,>o..........;,,,,,,,,,,,,,,,,,-.............................................................          ",
"          ...........................................................X,,,,,,,,,#.......................................................O,,,,,,,,,,,,,,,,,,@..........&,,,,,,,,,,,,,,,,,:X.............................................................          ",
"          ...........................................................+,,,,,,,,&.......................................................X>,,,,,,,,,,,,,,,,,&..........@,,,,,,,,,,,,,,,,,,O..............................................................          ",
"         ............................................................+,,,,,,,;........................................................-,,,,,,,,,,,,,,,,,-..........O>,,,,,,,,,,,,,,,,,$................................................................         ",
"         ............................................................$,,,,,,,o.......................................................%,,,,,,,,,,,,,,,,,>X.........X;,,,,,,,,,,,,,,,,,*.................................................................         ",
"         ............................................................%,,,,,,%.......................................................@,,,,,,,,,,,,,,,,,,+..........*,,,,,,,,,,,,,,,,,;X.................................................................         ",
"        .............................................................%,,,,,:X......................................................o>,,,,,,,,,,,,,,,,,$..........#,,,,,,,,,,,,,,,,,>O...................................................................        ",
"        .............................................................-,,,,,#.......................................................;,,,,,,,,,,,,,,,,,=..........O,,,,,,,,,,,,,,,,,,#....................................................................        ",
"        .............................................................-,,,,>X......................................................*,,,,,,,,,,,,,,,,,:X.........X:,,,,,,,,,,,,,,,,,&.....................................................................        ",
"       ..............................................................:,,,,&......................................................#,,,,,,,,,,,,,,,,,,O..........=,,,,,,,,,,,,,,,,,;.......................................................................       ",
"       ..............................................................,,,,,O.....................................................O>,,,,,,,,,,,,,,,,,#..........%,,,,,,,,,,,,,,,,,>o.......................................................................       ",
"       ..............................................................,,,,:.....................................................X;,,,,,,,,,,,,,,,,,*..........+,,,,,,,,,,,,,,,,,,+........................................................................       ",
"       ........................................................................................................................*,,,,,,,,,,,,,,,,,;X.........X>,,,,,,,,,,,,,,,,,%.........................................................................       ",
"      ........................................................................................................................$,,,,,,,,,,,,,,,,,>O..........-,,,,,,,,,,,,,,,,,-...........................................................................      ",
"      .......................................................................................................................O,,,,,,,,,,,,,,,,,,@..........&,,,,,,,,,,,,,,,,,>X...........................................................................      ",
"      ......................................................................................................................X:,,,,,,,,,,,,,,,,,&..........@,,,,,,,,,,,,,,,,,,O............................................................................      ",
"      ......................................................................................................................-,,,,,,,,,,,,,,,,,;..........o>,,,,,,,,,,,,,,,,,$.............................................................................      ",
"     ......................................................................................................................%,,,,,,,,,,,,,,,,,>X.........X;,,,,,,,,,,,,,,,,,=...............................................................................     ",
"     .....................................................................................................................+,,,,,,,,,,,,,,,,,,+..........*,,,,,,,,,,,,,,,,,;X...............................................................................     ",
"     ....................................................................................................................o>,,,,,,,,,,,,,,,,,%..........#,,,,,,,,,,,,,,,,,>O................................................................................     ",
"     ....................................................................................................................;,,,,,,,,,,,,,,,,,=..........O>,,,,,,,,,,,,,,,,,#.................................................................................     ",
"     ...................................................................................................................&,,,,,,,,,,,,,,,,,:X.........X:,,,,,,,,,,,,,,,,,*..................................................................................     ",
"    ...................................................................................................................#,,,,,,,,,,,,,,,,,,O..........=,,,,,,,,,,,,,,,,,;....................................................................................    ",
"    ..................................................................................................................O>,,,,,,,,,,,,,,,,,#..........$,,,,,,,,,,,,,,,,,>o....................................................................................    ",
"    .................................................................................................................X;,,,,,,,,,,,,,,,,,*..........+,,,,,,,,,,,,,,,,,,@.....................................................................................    ",
"    .................................................................................................................*,,,,,,,,,,,,,,,,,;X.........X>,,,,,,,,,,,,,,,,,%......................................................................................    ",
"    ................................................................................................................#,,,,,,,,,,,,,,,,,>O..........-,,,,,,,,,,,,,,,,,-.......................................................................................    ",
"    ...............................................................................................................O,,,,,,,,,,,,,,,,,,#..........%,,,,,,,,,,,,,,,,,>X.......................................................................................    ",
"    ..............................................................................................................X:,,,,,,,,,,,,,,,,,&..........@,,,,,,,,,,,,,,,,,,+........................................................................................    ",
"   ...............................................................................................................=,,,,,,,,,,,,,,,,,;..........o>,,,,,,,,,,,,,,,,,$..........................................................................................   ",
"   ..............................................................................................................%,,,,,,,,,,,,,,,,,>o..........;,,,,,,,,,,,,,,,,,=...........................................................................................   ",
"   .............................................................................................................+,,,,,,,,,,,,,,,,,,+..........*,,,,,,,,,,,,,,,,,:X...........................................................................................   ",
"   ............................................................................................................X>,,,,,,,,,,,,,,,,,%..........#,,,,,,,,,,,,,,,,,>O............................................................................................   ",
"   ............................................................................................................;,,,,,,,,,,,,,,,,,-..........O>,,,,,,,,,,,,,,,,,#.............................................................................................   ",
"   ...........................................................................................................&,,,,,,,,,,,,,,,,,:X.........X;,,,,,,,,,,,,,,,,,*..............................................................................................   ",
"   ..........................................................................................................@,,,,,,,,,,,,,,,,,,O..........=,,,,,,,,,,,,,,,,,;X..............................................................................................   ",
"   .........................................................................................................O>,,,,,,,,,,,,,,,,,$..........$,,,,,,,,,,,,,,,,,>o...............................................................................................   ",
"   ........................................................................................................X;,,,,,,,,,,,,,,,,,*..........O,,,,,,,,,,,,,,,,,,@................................................................................................   ",
"   ........................................................................................................*,,,,,,,,,,,,,,,,,;X.........X>,,,,,,,,,,,,,,,,,&.................................................................................................   ",
"   .......................................................................................................#,,,,,,,,,,,,,,,,,>O..........-,,,,,,,,,,,,,,,,,-..................................................................................................   ",
"   ......................................................................................................O,,,,,,,,,,,,,,,,,,#..........%,,,,,,,,,,,,,,,,,>X..................................................................................................   ",
"   .....................................................................................................X:,,,,,,,,,,,,,,,,,&..........@,,,,,,,,,,,,,,,,,,+...................................................................................................   ",
"   .....................................................................................................=,,,,,,,,,,,,,,,,,;..........o>,,,,,,,,,,,,,,,,,$....................................................................................................   ",
"   ....................................................................................................$,,,,,,,,,,,,,,,,,>o..........;,,,,,,,,,,,,,,,,,=.....................................................................................................   ",
"   ...................................................................................................+,,,,,,,,,,,,,,,,,,@..........&,,,,,,,,,,,,,,,,,:X.....................................................................................................   ",
"   ..................................................................................................X>,,,,,,,,,,,,,,,,,%..........#,,,,,,,,,,,,,,,,,,O......................................................................................................   ",
"   ..................................................................................................-,,,,,,,,,,,,,,,,,-..........O>,,,,,,,,,,,,,,,,,#.......................................................................................................   ",
"   .................................................................................................&,,,,,,,,,,,,,,,,,>X.........X;,,,,,,,,,,,,,,,,,*........................................................................................................   ",
"   ................................................................................................@,,,,,,,,,,,,,,,,,,O..........*,,,,,,,,,,,,,,,,,;X........................................................................................................   ",
"   ...............................................................................................o>,,,,,,,,,,,,,,,,,$..........$,,,,,,,,,,,,,,,,,>O.........................................................................................................   ",
"   ..............................................................................................X;,,,,,,,,,,,,,,,,,=..........O,,,,,,,,,,,,,,,,,,@..........................................................................................................   ",
"   ..............................................................................................*,,,,,,,,,,,,,,,,,;X.........X:,,,,,,,,,,,,,,,,,&...........................................................................................................   ",
"   .............................................................................................#,,,,,,,,,,,,,,,,,>O..........-,,,,,,,,,,,,,,,,,;............................................................................................................   ",
"   ............................................................................................O>,,,,,,,,,,,,,,,,,#..........%,,,,,,,,,,,,,,,,,>X............................................................................................................   ",
"   ...........................................................................................X:,,,,,,,,,,,,,,,,,*..........+,,,,,,,,,,,,,,,,,,+.............................................................................................................   ",
"   ...........................................................................................=,,,,,,,,,,,,,,,,,;..........o>,,,,,,,,,,,,,,,,,%..............................................................................................................   ",
"   ..........................................................................................$,,,,,,,,,,,,,,,,,>o..........;,,,,,,,,,,,,,,,,,=...............................................................................................................   ",
"    ........................................................................................+,,,,,,,,,,,,,,,,,,@..........&,,,,,,,,,,,,,,,,,:X..............................................................................................................    ",
"    .......................................................................................X>,,,,,,,,,,,,,,,,,&..........#,,,,,,,,,,,,,,,,,,O...............................................................................................................    ",
"    .......................................................................................-,,,,,,,,,,,,,,,,,-..........O>,,,,,,,,,,,,,,,,,#................................................................................................................    ",
"    ......................................................................................%,,,,,,,,,,,,,,,,,>X.........X;,,,,,,,,,,,,,,,,,*.................................................................................................................    ",
"    .....................................................................................@,,,,,,,,,,,,,,,,,,+..........*,,,,,,,,,,,,,,,,,;X.................................................................................................................    ",
"    ....................................................................................o>,,,,,,,,,,,,,,,,,$..........#,,,,,,,,,,,,,,,,,>O..................................................................................................................    ",
"    ....................................................................................;,,,,,,,,,,,,,,,,,=..........O,,,,,,,,,,,,,,,,,,#...................................................................................................................    ",
"     ..................................................................................*,,,,,,,,,,,,,,,,,:X.........X:,,,,,,,,,,,,,,,,,&...................................................................................................................     ",
"     .................................................................................#,,,,,,,,,,,,,,,,,>O..........=,,,,,,,,,,,,,,,,,;....................................................................................................................     ",
"     ................................................................................O>,,,,,,,,,,,,,,,,,#..........%,,,,,,,,,,,,,,,,,>o....................................................................................................................     ",
"     ...............................................................................X;,,,,,,,,,,,,,,,,,*..........+,,,,,,,,,,,,,,,,,,+.....................................................................................................................     ",
"     ...............................................................................=,,,,,,,,,,,,,,,,,;X.........X>,,,,,,,,,,,,,,,,,%......................................................................................................................     ",
"      .............................................................................$,,,,,,,,,,,,,,,,,>o..........;,,,,,,,,,,,,,,,,,-......................................................................................................................      ",
"      ............................................................................O,,,,,,,,,,,,,,,,,,@..........&,,,,,,,,,,,,,,,,,:X......................................................................................................................      ",
"      ...........................................................................X>,,,,,,,,,,,,,,,,,&..........@,,,,,,,,,,,,,,,,,,O.......................................................................................................................      ",
"      ...........................................................................-,,,,,,,,,,,,,,,,,-..........O>,,,,,,,,,,,,,,,,,$........................................................................................................................      ",
"       .........................................................................%,,,,,,,,,,,,,,,,,>X.........X;,,,,,,,,,,,,,,,,,*........................................................................................................................       ",
"       ........................................................................+,,,,,,,,,,,,,,,,,,+..........*,,,,,,,,,,,,,,,,,;X.....................................................:,,,,..............................................................       ",
"       .......................................................................o>,,,,,,,,,,,,,,,,,%..........#,,,,,,,,,,,,,,,,,>O.....................................................O,,,,,..............................................................       ",
"       .......................................................................;,,,,,,,,,,,,,,,,,=..........O,,,,,,,,,,,,,,,,,,#......................................................&,,,,:..............................................................       ",
"        .....................................................................&,,,,,,,,,,,,,,,,,:X.........X:,,,,,,,,,,,,,,,,,*......................................................X>,,,,-.............................................................        ",
"        ....................................................................#,,,,,,,,,,,,,,,,,,O..........=,,,,,,,,,,,,,,,,,;.......................................................#,,,,,-.............................................................        ",
"        ...................................................................O>,,,,,,,,,,,,,,,,,#..........$,,,,,,,,,,,,,,,,,>o......................................................X>,,,,,%.............................................................        ",
"         .................................................................X;,,,,,,,,,,,,,,,,,*..........+,,,,,,,,,,,,,,,,,,@.......................................................%,,,,,,%............................................................         ",
"         .................................................................*,,,,,,,,,,,,,,,,,;X.........X>,,,,,,,,,,,,,,,,,%.......................................................o,,,,,,,$............................................................         ",
"         ................................................................$,,,,,,,,,,,,,,,,,>O..........-,,,,,,,,,,,,,,,,,-........................................................;,,,,,,,+............................................................         ",
"          ..............................................................O,,,,,,,,,,,,,,,,,,@..........&,,,,,,,,,,,,,,,,,>X.......................................................&,,,,,,,,+...........................................................          ",
"          .............................................................X:,,,,,,,,,,,,,,,,,&..........@,,,,,,,,,,,,,,,,,,O.......................................................#,,,,,,,,,X...........................................................          ",
"          .............................................................-,,,,,,,,,,,,,,,,,;..........o>,,,,,,,,,,,,,,,,,$.......................................................+,,,,,,,,,,............................................................          ",
"           ...........................................................%,,,,,,,,,,,,,,,,,>X.........X;,,,,,,,,,,,,,,,,,=.......................................................+>,,,,,,,,,>...........................................................           ",
"           ..........................................................+,,,,,,,,,,,,,,,,,,+..........*,,,,,,,,,,,,,,,,,;X......................................................#,,,,,,,,,,,-...........................................................           ",
"           .........................................................o>,,,,,,,,,,,,,,,,,%..........#,,,,,,,,,,,,,,,,,>O......................................................&,,,,,,,,,,,,-...........................................................           ",
"            ........................................................;,,,,,,,,,,,,,,,,,=..........O>,,,,,,,,,,,,,,,,,#.....................................................O;,,,,,,,,,,,,,&..........................................................            ",
"            .......................................................&,,,,,,,,,,,,,,,,,:X.........X:,,,,,,,,,,,,,,,,,*....................................................X%,,,,,,,,,,,,,,,%..........................................................            ",
"             .....................................................@,,,,,,,,,,,,,,,,,,O..........=,,,,,,,,,,,,,,,,,;...................................................X%>,,,,,,,,,,,,,,,,$.........................................................             ",
"             ....................................................O>,,,,,,,,,,,,,,,,,$..........$,,,,,,,,,,,,,,,,,>o.................................................+*>,,,,,,,,,,,,,,,,,,+.........................................................             ",
"             ...................................................X;,,,,,,,,,,,,,,,,,*..........+,,,,,,,,,,,,,,,,,,@..............................................o#*:,,,,,,,,,,,,,,,,,,,,,+.........................................................             ",
"              ..................................................*,,,,,,,,,,,,,,,,,>@++++++++++>,,,,,,,,,,,,,,,,,-+++++++++++++++++++++++++++++++++++++++++@%%*->,,,,,,,,,,,,,,,,,,,,,,,,,o........................................................              ",
"              .................................................#,,,,,,,,,,,,,,,,,,,,,,,,,,,,,,,,,,,,,,,,,,,,,,,,,,,,,,,,,,,,,,,,,,,,,,,,,,,,,,,,,,,,,,,,,,,,,,,,,,,,,,,,,,,,,,,,,,,,,,,,,.........................................................              ",
"               ...............................................O,,,,,,,,,,,,,,,,,,,,,,,,,,,,,,,,,,,,,,,,,,,,,,,,,,,,,,,,,,,,,,,,,,,,,,,,,,,,,,,,,,,,,,,,,,,,,,,,,,,,,,,,,,,,,,,,,,,,,,,,,,........................................................               ",
"               ..............................................X:,,,,,,,,,,,,,,,,,,,,,,,,,,,,,,,,,,,,,,,,,,,,,,,,,,,,,,,,,,,,,,,,,,,,,,,,,,,,,,,,,,,,,,,,,,,,,,,,,,,,,,,,,,,,,,,,,,,,,,,,,-........................................................               ",
"                .............................................=,,,,,,,,,,,,,,,,,,,,,,,,,,,,,,,,,,,,,,,,,,,,,,,,,,,,,,,,,,,,,,,,,,,,,,,,,,,,,,,,,,,,,,,,,,,,,,,,,,,,,,,,,,,,,,,,,,,,,,,,,,-.......................................................                ",
"                ............................................%,,,,,,,,,,,,,,,,,,,,,,,,,,,,,,,,,,,,,,,,,,,,,,,,,,,,,,,,,,,,,,,,,,,,,,,,,,,,,,,,,,,,,,,,,,,,,,,,,,,,,,,,,,,,,,,,,,,,,,,,,,,*.......................................................                ",
"                 ..........................................+,,,,,,,,,,,,,,,,,,,,,,,,,,,,,,,,,,,,,,,,,,,,,,,,,,,,,,,,,,,,,,,,,,,,,,,,,,,,,,,,,,,,,,,,,,,,,,,,,,,,,,,,,,,,,,,,,,,,,,,,,,,,%......................................................                 ",
"                 .........................................X>,,,,,,,,,,,,,,,,,,,,,,,,,,,,,,,,,,,,,,,,,,,,,,,,,,,,,,,,,,,,,,,,,,,,,,,,,,,,,,,,,,,,,,,,,,,,,,,,,,,,,,,,,,,,,,,,,,,,,,,,,,,,%......................................................                 ",
"                  ........................................;,,,,,,,,,,,,,,,,,,,,,,,,,,,,,,,,,,,,,,,,,,,,,,,,,,,,,,,,,,,,,,,,,,,,,,,,,,,,,,,,,,,,,,,,,,,,,,,,,,,,,,,,,,,,,,,,,,,,,,,,,,,,,+.....................................................                  ",
"                  .......................................&,,,,,,,,,,,,,,,,,,,,,,,,,,,,,,,,,,,,,,,,,,,,,,,,,,,,,,,,,,,,,,,,,,,,,,,,,,,,,,,,,,,,,,,,,,,,,,,,,,,,,,,,,,,,,,,,,,,,,,,,,,,,,,+.....................................................                  ",
"                   .....................................o-------------------------------------------------------------------------------------------------------------------------------O....................................................                   ",
"                   ..........................................................................................................................................................................................................................                   ",
"                    ........................................................................................................................................................................................................................                    ",
"                     ......................................................................................................................................................................................................................                     ",
"                     ......................................................................................................................................................................................................................                     ",
"                      ....................................................................................................................................................................................................................                      ",
"                       ..................................................................................................................................................................................................................                       ",
"                       ..................................................................................................................................................................................................................                       ",
"                        ................................................................................................................................................................................................................                        ",
"                         ..............................................................................................................................................................................................................                         ",
"                         ..............................................................................................................................................................................................................                         ",
"                          ............................................................................................................................................................................................................                          ",
"                           ..........................................................................................................................................................................................................                           ",
"                           ..........................................................................................................................................................................................................                           ",
"                            ........................................................................................................................................................................................................                            ",
"                             ......................................................................................................................................................................................................                             ",
"                              ....................................................................................................................................................................................................                              ",
"                              ....................................................................................................................................................................................................                              ",
"                               ..................................................................................................................................................................................................                               ",
"                                ................................................................................................................................................................................................                                ",
"                                 ..............................................................................................................................................................................................                                 ",
"                                  ............................................................................................................................................................................................                                  ",
"                                   ..........................................................................................................................................................................................                                   ",
"                                    ........................................................................................................................................................................................                                    ",
"                                     ......................................................................................................................................................................................                                     ",
"                                      ....................................................................................................................................................................................                                      ",
"                                      ....................................................................................................................................................................................                                      ",
"                                       ..................................................................................................................................................................................                                       ",
"                                        ................................................................................................................................................................................                                        ",
"                                          ............................................................................................................................................................................                                          ",
"                                           ..........................................................................................................................................................................                                           ",
"                                            ........................................................................................................................................................................                                            ",
"                                             ......................................................................................................................................................................                                             ",
"                                              ....................................................................................................................................................................                                              ",
"                                               ..................................................................................................................................................................                                               ",
"                                                ................................................................................................................................................................                                                ",
"                                                 ..............................................................................................................................................................                                                 ",
"                                                   ..........................................................................................................................................................                                                   ",
"                                                    ........................................................................................................................................................                                                    ",
"                                                     ......................................................................................................................................................                                                     ",
"                                                       ..................................................................................................................................................                                                       ",
"                                                        ................................................................................................................................................                                                        ",
"                                                          ............................................................................................................................................                                                          ",
"                                                           ..........................................................................................................................................                                                           ",
"                                                             ......................................................................................................................................                                                             ",
"                                                              ....................................................................................................................................                                                              ",
"                                                                ................................................................................................................................                                                                ",
"                                                                 ..............................................................................................................................                                                                 ",
"                                                                   ..........................................................................................................................                                                                   ",
"                                                                     ......................................................................................................................                                                                     ",
"                                                                       ..................................................................................................................                                                                       ",
"                                                                         ..............................................................................................................                                                                         ",
"                                                                           ..........................................................................................................                                                                           ",
"                                                                             ......................................................................................................                                                                             ",
"                                                                                ................................................................................................                                                                                ",
"                                                                                  ............................................................................................                                                                                  ",
"                                                                                     ......................................................................................                                                                                     ",
"                                                                                        ................................................................................                                                                                        ",
"                                                                                           ..........................................................................                                                                                           ",
"                                                                                              ....................................................................                                                                                              ",
"                                                                                                  ............................................................                                                                                                  ",
"                                                                                                      ....................................................                                                                                                      ",
"                                                                                                           ..........................................                                                                                                           ",
"                                                                                                                  ............................                                                                                                                  ",
"                                                                                                                                                                                                                                                                ",
"                                                                                                                                                                                                                                                                ",
"                                                                                                                                                                                                                                                                "
};
